packages/core/src/svgs/tokens/mono/KOGE.svg

<svg width="24" height="24" viewBox="0 0 24 24" fill="none" xmlns="http://www.w3.org/2000/svg">
<path fill-rule="evenodd" clip-rule="evenodd" d="M12 22C14.6522 22 17.1957 20.9464 19.071 19.071C20.9464 17.1957 22 14.6522 22 12C22 9.34785 20.9464 6.80429 19.071 4.92892C17.1957 3.05357 14.6522 2 12 2C9.34785 2 6.80429 3.05357 4.92892 4.92892C3.05357 6.80429 2 9.34785 2 12C2 14.6522 3.05357 17.1957 4.92892 19.071C6.80429 20.9464 9.34785 22 12 22ZM12 20.8235C14.3401 20.8235 16.5845 19.8938 18.2392 18.2392C19.8938 16.5845 20.8235 14.3401 20.8235 12C20.8235 9.65983 19.8938 7.41554 18.2392 5.76081C16.5845 4.10608 14.3401 3.17647 12 3.17647C9.65983 3.17647 7.41554 4.10608 5.76081 5.76081C4.10608 7.41554 3.17647 9.65983 3.17647 12C3.17647 14.3401 4.10608 16.5845 5.76081 18.2392C7.41554 19.8938 9.65983 20.8235 12 20.8235Z" fill="white"/>
<path d="M8.46973 7.75903V17.2708L10.2345 16.3297V8.74138L8.46973 7.75903ZM11.4109 13.6296L12.7404 14.6414L11.4109 15.5237V13.6296Z" fill="white"/>
<path d="M12.7463 10.8352L14.205 11.894L13.0168 12.6588L14.5109 13.8411L17.2932 12.2118L9.9932 6.82935L8.46973 7.72934L11.4109 9.86469V11.6588L12.7463 10.8352Z" fill="white"/>
</svg>

<svg xmlns="http://www.w3.org/2000/svg" width="24" height="24" fill="none" viewBox="0 0 24 24">
    <path fill="#fff" fill-rule="evenodd" d="M12 22a10 10 0 1 0 0-20 10 10 0 0 0 0 20m0-1.177a8.824 8.824 0 1 0 0-17.648 8.824 8.824 0 0 0 0 17.649" clip-rule="evenodd"/>
    <path fill="#fff" d="M8.47 7.759v9.512l1.765-.941V8.74zm2.94 5.87 1.33 1.012-1.33.883z"/>
    <path fill="#fff" d="m12.746 10.835 1.459 1.059-1.188.765 1.494 1.182 2.782-1.63-7.3-5.382-1.523.9 2.94 2.136v1.794z"/>
</svg>
